X:1
T:Sapphische Ode
T:Sapphische Ode
T:Johannes Brahms (1833 – 1897) Op. 94, No. 4.
T:Hans von Schmidt (1856 – 1923)
T:Roses culled by night from the hedges darkling, Sweeter are than those when the day is sparkling; As the boughs above me the breeze was swaying, Dew gently spraying. Thus thy kisses sweet on my cheeks were falling From thy lips by night, dew and flow'r recalling! For from eyes, the soul's emotion showing, Tear drops were flowing! George Cooper
T:Rose ho colto, di notte, dal cespuglio oscuro; più che di giorno esalavano profumo; e i rami scossi sparsero rugiada, e mi ritrovai tutta inzuppata. Anche il profumo dei baci mi ha sedotto Che dal cespuglio delle tue labbra ho raccolto: ed anche da te, nell’animo turbata, più di una lacrima è caduta. Ferdinando Albeggiani
T:by Mutopia-2006/12/18-580
T:by Mutopia-2006/12/18-580
T:by Mutopia-2006/12/18-580
C:Johannes Brahms (1833 – 1897)
C:Op. 94, No. 4.
Z:Hans von Schmidt (1856 – 1923)
Z:by Mutopia-2006/12/18-580
%%score 1 { 2 | ( 3 4 ) }
L:1/8
Q:1/4=68
M:2/2
K:F
V:1 treble nm="Voice"
V:2 treble nm="Piano"
V:3 bass 
V:4 bass 
V:1
"^Zeimlich langsam" z8 | A2 F2 C2 A2 | c2 F G A2 F2 | (C2 G2) F3 z | B2 A2 G2 F2 | %5
w: |Ro- sen brach ich|nachts mir am dunk len|Ha- * ge;|sü- ßer hauch ten|
 E2 F C (E2 F) C | B4 A2 z2 | z4 f2 _e2 |[M:2/4] _d2 c2 =B2 c _A (B2 c) A |[M:2/2] G4 G2 z2 | %10
w: Duft sie als je * am|Ta- ge,|doch ver-|streu- ten reich die be- weg- * ten|Ä- ste,|
[M:2/4] =A8- A2 G D |[M:2/2] (F4 E2{FE} DE) | F2 z2 z4 | z8 | z8 | z8 | A2 F2 C2 A2 | %17
w: Tau, * der mich|nä _ _ _|ßte.||||Auch der Küs se|
 c2 F G A2 F2 | (C2 G2) F4 | B2 A2 G2 F2 | E2 F C ^G2 A F | d4 c2 z2 | z4 f2 _e2 | %23
w: Duft mich wie nie be-|rück * te,|die ich nachts vom|Strauch dei ner Lip- * pen|pflück- te:|doch auch|
[M:2/4] ^c2 =c2 =B2 c _A (G2 A) F |[M:2/2] D4 C2 z2 |[M:2/4] (F4 ^F4 A2) G D | %26
w: dir, be- wegt im Ge- müt * gleich|je- nen,|tau- * * ten die|
[M:2/2] (=F4 E2{FE} DE) | F2 z2 z4 | z8 | !fermata!z8 |] %30
w: Trä _ _ _|nen.|||
V:2
!p! z ([F,A,C]2 [F,A,C]- [F,A,C] [F,A,C]2 [F,A,C]- | %1
 [F,A,C] [F,A,C]2 [F,A,C]- [F,A,C] [F,A,C]2 [F,A,C]-) | %2
 (([F,A,C] [F,A,C]2) [F,A,C]- [F,A,C] [F,A,C]2 [F,A,C]- | %3
 [F,A,C] [E,B,C]2 [E,B,C]- [E,B,C] [A,C]2 [F,F]-) | ([F,F] [B,FB]2 [CEA]- [CEA] [DG]2 [CF]) | %5
 z!>(! [=B,E]z[CF]z[^G,E]z[A,F] | z [B,FB]z[CGB]z[CA]z[Ac]!>)! | %7
!pp! z (.fz.[F_ef]z.[F_df]z.[Fce]) | %8
[M:2/4]!<(! z (.[FB_d]z.[F_Ac]!<)!z!>(!.[FGB]z.[FAc]z.[FGB]z.[FAc]) | %9
[M:2/2] z (.[=B,DG]z.[B,DG]z.[CG]z!>)!.[CG]) | %10
[M:2/4]!<(! z ([=A,CF=A]2 [A,CFA]2 [A,C^FA]2!<)!!>(! [A,CFA]2 [A,=B,=FA]2!>)! [G,B,FG]) | %11
[M:2/2] z ([A,CF]2 [A,CF]2 [G,_B,E]2 [G,B,E]) |!<(! z ([A,F]2 [FA]2 [EAc]2 [_EAc]- | %13
 [EAc]) ([DB]2 [Bd]2 [Adf]2!<)! [_Adf]- | [_Adf]) ([Gdf]2 [FGd]2 [DF=B]2 [=B,FG]- | %15
 [B,FG] [CE_B]2 [_B,EG]2 [G,B,E]2 [E,B,C]) | z ([F,A,C]2 [F,A,C]2 [F,A,C]2 [F,A,C]- | %17
 [F,A,C] [F,A,C]2 [F,A,C]2 [F,A,C]2 [F,A,C]-) | ([F,A,C] [E,B,C]2 [E,B,C]2 [A,C]2 [F,F]- | %19
 [F,F] [B,FB]2 [CEA]- [CEA] [DG]2 [CF]) |!<(! z .[=B,E]z.[CF]z.[B,E^G]z.[CFA]!<)! | %21
!>(! z .[DBd]z.[FBd]z.[FAc]z.[Ac]!>)! |!pp! z (.fz.[F_ef]z.[F_df]z.[Fce]) | %23
[M:2/4]!<(! z (.[FB_d]z.[F_Ac]z.[FG_c]!<)!!>(!z.[FA=c]z.[_CFG]z.[=CFA])!>)! | %24
[M:2/2]!>(! z [G,=B,D]2 [G,B,D]2 [G,_B,C]2 [G,B,C]!>)! | %25
[M:2/4]!<(! z [A,CF]2 [A,CF] z!<)!!>(! [A,C^F]2 [A,CF] z [=B,D=FA]2 [G,B,FG]!>)! | %26
[M:2/2] z [A,CF]2 [A,CF] z [G,_B,E]2 [G,B,E] | %27
[K:bass] z!<(! [A,CF]2 [F,A,C]2 [E,A,C]2 [_E,A,C]-!<)! | %28
!>(! [E,A,C] [D,F,C]2 [D,F,B,]2!>)! [^C,F,B,]2 [C,=E,B,]- |!pp! [C,E,B,]2 !fermata![=C,F,A,]6 |] %30
V:3
 z4 (C,4- | C,4 A,,4- | A,,8 | C,4) ([F,,F,]2 [F,,E,]2 | [F,,D,]2 [F,,C,]2 [F,,B,,]2 [F,,A,,]2) | %5
 ([F,,^G,,]2 [F,,A,,]2 [F,,=B,,]2 [F,,C,]2 | [F,,D,]2 [F,,D,]2 [F,,F,]2) [F,C]2 | %7
 [F,F]2 [F,_E]2 [F,^C]2 [F,=CE]2 | %8
[M:2/4] ([F,B,_D]2 [F,_A,C]2 [F,G,=A,]2 [F,A,C]2 [F,G,B,]2 [F,A,C]2) |[M:2/2] [F,,F,]4 [E,,E,]4 | %10
[M:2/4] ([_E,,_E,]4 [D,,D,]4 [G,,,G,,]4) |[M:2/2] C,,4- [C,,C,-]4 | (C,4 F,4- | F,4 B,4) | G,8- | %15
 G,4 C,4- | C,4 A,,4 | A,,8 | C,4 ([F,,F,]2 E,2 | [F,,D,]2 [F,,C,]2 [F,,B,,]2 [F,,A,,]2) | %20
 ([F,,^G,,]2 [F,,A,,]2 [F,,=B,,]2 [F,,C,]2 | [F,,B,,]2 [F,,D,]2 [F,,F,]2) [F,C]2 | %22
 ([F,F]2 [F,_E]2 [F,_D]2 [F,CE]2) | %23
[M:2/4] ([F,B,_D]2 [F,_A,C]2 [F,G,=B,]2 [F,A,C]2 [F,,=B,,F,]2 [F,,C,F,]2) | %24
[M:2/2] ([F,,F,]4 [E,,E,]4) |[M:2/4] ([_E,,_E,]4 [D,,D,]4 [G,,,G,,]4) |[M:2/2] C,,4- [C,,C,]4 | %27
 [F,,C,]4 F,,4 | [B,,,B,,]4 [F,,,F,,]4 | !fermata![F,,,F,,]8 |] %30
V:4
 x8 | F,,8 | A,,,4 C,,4- | C,,4 x4 | x8 | x8 | x8 | x8 |[M:2/4] x12 |[M:2/2] x8 |[M:2/4] x12 | %11
[M:2/2] x8 | F,,8 | B,,8 | (=B,,4 G,,4 | C,4 C,,4) | F,,8 | A,,,4 C,,4- | C,,4 x4 | x8 | x8 | x8 | %22
 x8 |[M:2/4] x12 |[M:2/2] x8 |[M:2/4] x12 |[M:2/2] x8 | x8 | x8 | x8 |] %30

